X:7576
T:Tipperary Hills, The
T:Michael Gorman's
O:england
R:slip jig
D:Bothy Band: Old Hag, You've Killed Me.
M:9/8
K:D
F2F A2F A2F|~G3 B2G B2G|~F3 A2F A2F|Bcd A2G FED:|
|:dcd f2d c2A|B2e e2d cBA|1 dcd f2d c2A|Bcd A2G FED:|2 f2d e2c d2B|A2B A2G FED||


